X:1
T:Hawl away the Hawser [1]
M:C|
L:1/8
R:Air
B:John Bell (1783-1864) music manuscript collection (Northumberland, c. 1812)
Z:AK/Fiddler's Companion
K:Amin
c|Bd g2 a/g/f g2|edcB gd c2|Bd g2 a/g/f gd|edcB A2c:|
|:c|BAGA BcdB|edcB gd c2|BAGA Bcdg|edcB A2c:|]

